imgs/head-windows.svg

<svg width="1446" height="1487" fill="none" xmlns="http://www.w3.org/2000/svg"><path fill-rule="evenodd" clip-rule="evenodd" d="M345.326 510.379c-22.012 70.735-73.619 127.295-84.874 200.516-12.602 81.99-10.192 164.763 16.663 243.25 32.224 94.175 63.054 205.415 152.085 249.935 89.089 44.54 192.17-19.49 291.39-28.2 105.785-9.29 219.028 28.12 311.15-24.7 97.67-56.02 161.66-159.269 196.41-266.369 35.2-108.444 63.97-241.569-1.22-335.111-66.4-95.282-230.369-47.471-318.287-123.357-86.683-74.82-61.6-243.659-164.682-293.519-100.148-48.44-240.981-18.258-321.746 58.237-81.131 76.841-43.687 212.62-76.889 319.318z" fill="#FD3E72"/></svg>

<svg width="1446" height="1487" viewBox="0 0 1446 1487" fill="none" xmlns="http://www.w3.org/2000/svg">
<path fill-rule="evenodd" clip-rule="evenodd" d="M345.326 510.379C323.314 581.114 271.707 637.674 260.452 710.895C247.85 792.885 250.26 875.658 277.115 954.145C309.339 1048.32 340.169 1159.56 429.2 1204.08C518.289 1248.62 621.37 1184.59 720.59 1175.88C826.375 1166.59 939.618 1204 1031.74 1151.18C1129.41 1095.16 1193.4 991.911 1228.15 884.811C1263.35 776.367 1292.12 643.242 1226.93 549.7C1160.53 454.418 996.561 502.229 908.643 426.343C821.96 351.523 847.043 182.684 743.961 132.824C643.813 84.3833 502.98 114.566 422.215 191.061C341.084 267.902 378.528 403.681 345.326 510.379Z" fill="#FD3E72"/>
</svg>
